assets/icons/ICON_TRANSIT.svg

<svg width="24" height="24" viewBox="0 0 250 250" fill="none" xmlns="http://www.w3.org/2000/svg">
<path d="M11.9998 2C7.57976 2 3.99976 2.5 3.99976 6V15.5C3.99976 17.43 5.56976 19 7.49976 19L5.99976 20.5V21H17.9998V20.5L16.4998 19C18.4298 19 19.9998 17.43 19.9998 15.5V6C19.9998 2.5 16.4198 2 11.9998 2ZM7.49976 17C6.66976 17 5.99976 16.33 5.99976 15.5C5.99976 14.67 6.66976 14 7.49976 14C8.32976 14 8.99976 14.67 8.99976 15.5C8.99976 16.33 8.32976 17 7.49976 17ZM10.9998 11H5.99976V6H10.9998V11ZM16.4998 17C15.6698 17 14.9998 16.33 14.9998 15.5C14.9998 14.67 15.6698 14 16.4998 14C17.3298 14 17.9998 14.67 17.9998 15.5C17.9998 16.33 17.3298 17 16.4998 17ZM17.9998 11H12.9998V6H17.9998V11Z" fill="#083A9B"/>
</svg>

<svg fill="#083A9B" version="1.1" id="Layer_1" xmlns="http://www.w3.org/2000/svg" xmlns:xlink="http://www.w3.org/1999/xlink" x="0px" y="0px"
	 width="24px" height="24px" viewBox="0 0 24 24" enable-background="new 0 0 24 24" xml:space="preserve">
<path d="M12,2C7.58,2,4,2.5,4,6v9.5C4,17.43,5.57,19,7.5,19L6,20.5V21h12v-0.5L16.5,19c1.93,0,3.5-1.57,3.5-3.5V6
	C20,2.5,16.42,2,12,2z M7.5,17C6.67,17,6,16.33,6,15.5S6.67,14,7.5,14C8.33,14,9,14.67,9,15.5S8.33,17,7.5,17z M11,11H6V6h5V11z
	 M16.5,17c-0.83,0-1.5-0.67-1.5-1.5s0.67-1.5,1.5-1.5s1.5,0.67,1.5,1.5S17.33,17,16.5,17z M18,11h-5V6h5V11z"/>
</svg>
